X:346
T:I Want To Be Near You
M:6/8
L:1/8
S:Colin Hume's website,  colinhume.com  - chords can also be printed below the stave.
Q:3/8=120
K:F
"^INTRO"F3GAB | A3c3 | G2B A2G | F3 "^CALL" "C7"F2G |\
"F"A3 "C7"A2G | "F"F2F F2A | "F"c2c "Bb"d2d | "C"c3- c2B | "F"A2A "C7"A2G | "F"F2F F2A | "F"c2c "Bb"d2d | "C"c6 |
"D7"d2d d2A | "Gm"B3B3 | "C7"c2c c2G | "F"A3 "C7"c3 |\
"F"F3 "C7"GAB | "F"A3 c3 | "C7"G2B A2G | "F"F2D "C7"C3 | "F"F3 "C7"GAB | "D7"A3 c3 | "Gm"G2B "C7"A2G | "F"F6 |

